!!!!SEGMENT: pl-kk--kk-i-1--051_anonim--graduale-benedicta-et-venerabilis.krn
!!!cenid: 15xx:771
!!!COM: Anonim
!!!COM-rismid: pe30004985
!!!CDT:
!!!CNT:
!!!OTL: Graduale/Benedicta et venerabilis
!!!PDT:
!!!AGN:
!!!SMS-siglum: PL-Kk
!!!SMS-shelfmark: Kk.I.1
!!!SMS-shelfwork: 051 W
!!!SMS-variant:
!!!SMS-altvar:
!!!NIFC-rismid: 300258005
!!!URL-scan: http://repozytorium.nifc.pl/skany/pl-kk-nut--i-1
!!!ONB-nifc: UWAGA: Cantus (s. 161r-162v, skan 0163-0165), Altus (s. 157r-158v, skan 0350-0352), Tenor (s. 136v-138r, skan 0527-0528), Bassus (s. 147r-158v, skan 0709-0711).
!!!AIN: 1 alto 1 bass 1 soprn 1 tenor
!!!key:
**kern	**text	**kern	**text	**kern	**text	**kern	**text
*part4	*part4	*part3	*part3	*part2	*part2	*part1	*part1
*staff4	*staff4	*staff3	*staff3	*staff2	*staff2	*staff1	*staff1
*I"BASSVS	*	*I"TENOR	*	*I"ALTVS	*	*I"CANTVS	*
*I'B	*	*I'T	*	*I'A	*	*I'S	*
*Ibass	*	*Itenor	*	*Ialto	*	*Isoprn	*
*ICvox	*	*ICvox	*	*ICvox	*	*ICvox	*
*clefF4	*	*clefC4	*	*clefC4	*	*clefC4	*
*k[b-]	*	*k[b-]	*	*k[b-]	*	*k[b-]	*
*F:	*	*F:	*	*F:	*	*F:	*
*M2/1	*	*M2/1	*	*M2/1	*	*M2/1	*
*stria6	*	*stria6	*	*stria6	*	*stria6	*
*met(C|)	*	*met(C|)	*	*met(C|)	*	*met(C|)	*
*lig	*	*lig	*	*	*	*	*
=1-	=1-	=1-	=1-	=1-	=1-	=1-	=1-
!LO:TX:a:t=P:problem=w źródle 2 bemole przykluczowe - B i BB	!	!LO:TX:a:t=Grad&colon;	!	!LO:TX:t=P:problem=po bemolu miniaturowy znak repetycji	!	!	!
*	*	*	*	*	*	*lig	*
1G	Be-	1B-	Be-	0d	Be-	1g	Be-
1D	.	1A	.	.	.	1f	.
*Xlig	*	*Xlig	*	*	*	*Xlig	*
=2-	=2-	=2-	=2-	=2-	=2-	=2-	=2-
*	*	*lig	*	*	*	*	*
1G	-ne-	1B-	-ne-	1d	-ne-	2.g\	-ne-
.	.	.	.	.	.	4f\	-di-
2C/	-di-	1c	.	2c/	-di-	2e\	.
1F\	-cta	.	.	1A/	-cta	2c\	-cta
*	*	*Xlig	*	*	*	*	*
=3-	=3-	=3-	=3-	=3-	=3-	=3-	=3-
.	.	1c	-dic-	.	.	1f	.
4E/	.	.	.	4G/	.	.	.
4D/	.	.	.	4F/	.	.	.
2C/	.	1c	-ta	2G/	.	2e\	.
2F/	.	.	.	2A/	.	2f\	.
=4-	=4-	=4-	=4-	=4-	=4-	=4-	=4-
0G	.	0B-	.	2.B-/	.	2d\	.
.	.	.	.	.	.	2.g\	.
.	.	.	.	4c/	.	.	.
.	.	.	.	2d\	.	.	.
.	.	.	.	.	.	4f\	.
.	.	.	.	2B-/	.	2d\	.
=5-	=5-	=5-	=5-	=5-	=5-	=5-	=5-
*lig	*	*	*	*	*	*	*
1C	e(t)	1G	.	1c	.	2e\	.
.	.	.	.	.	.	2.g\	.
*	*	*lig	*	*	*	*	*
1G	.	1B-	.	1d	.	.	.
.	.	.	.	.	.	4f\	.
.	.	.	.	.	.	2d\	.
*Xlig	*	*	*	*	*	*	*
=6-	=6-	=6-	=6-	=6-	=6-	=6-	=6-
1C	.	1G	.	1c	.	1e	.
*	*	*Xlig	*	*	*	*	*
1BB-	.	1B-	et	1F	et	1d	.
=7-	=7-	=7-	=7-	=7-	=7-	=7-	=7-
1C	ve-	1G	ve-	1c	ve-	1e	et
*	*	*lig	*	*	*	*	*
4BB-/	-ne-	1B-	.	1F	-ne-	4d\	ve-
4C/	.	.	.	.	.	4e\	.
4D/	-ra-	.	.	.	.	4f\	-ne:-
*	*	*	*	*	*	*custos:a	*
4E/	.	.	.	.	.	4g\	.
!	!	!	!	!	!	!LO:LB:g=original	!
=8-	=8-	=8-	=8-	=8-	=8-	=8-	=8-
*custos:G	*	*	*	*	*	*	*
1F	.	1A	.	2.f\	-ra-	2a\	-ra-
.	.	.	.	.	.	1f	-bi-
*	*	*	*	*custos:d	*	*	*
.	.	.	.	4e\	.	.	.
!LO:PB:g=original	!	!	!	!LO:LB:g=original	!	!	!
*lig	*	*Xlig	*	*	*	*	*
*	*	*lig	*	*	*	*	*
1G	-bi-	1B-	-ne-	2d\	.	.	.
.	.	.	.	4c\	-bi-	2e\	-lis
.	.	.	.	4B-/	-lis	.	.
=9-	=9-	=9-	=9-	=9-	=9-	=9-	=9-
1F	.	1c	.	1A	.	1f	.
*Xlig	*	*Xlig	*	*	*	*	*
*lig	*	*lig	*	*	*	*	*
1F	-lis	1c	-ra-	1A	es	2rf	.
.	.	.	.	.	.	2f\	es
=10-	=10-	=10-	=10-	=10-	=10-	=10-	=10-
*col	*	*	*	*	*ij	*	*
*	*	*custos:G	*	*	*	*	*
!LO:N:vis=1	!	!	!	!	!	!	!
2.G\	.	1B-	.	2r	.	2d\	.
.	.	.	.	2B-/	et	2d\	.
*Xlig	*	*Xlig	*	*	*	*	*
4F/	.	.	.	.	.	.	.
!	!	!LO:LB:g=original	!	!	!	!	!
*Xcol	*	*lig	*	*	*	*	*
2E/	.	1G	-bi-	1c	ve-	1e	.
2C/	es	.	.	.	.	.	.
=11-	=11-	=11-	=11-	=11-	=11-	=11-	=11-
*lig	*	*	*	*	*	*	*
1G	.	1B-	.	2d\	-ne-	2d\	.
.	.	.	.	2e\	.	2g\	.
*	*	*Xlig	*	*	*	*	*
1F	.	1A	-lis	2.c/	-ra-	2a\	.
.	.	.	.	.	.	1.f\	.
.	.	.	.	4B-/	.	.	.
*Xlig	*	*	*	*	*	*	*
=12-	=12-	=12-	=12-	=12-	=12-	=12-	=12-
*lig	*	*lig	*	*	*	*	*
1F	.	1c	.	2A/	-bi-	.	.
.	.	.	.	2F/	-li	.	.
!	!	!LO:TX:a:t=fa	!	!	!	!	!
1BB-	.	1B-	.	0F	es	1d	.
*Xlig	*	*Xlig	*	*	*Xij	*	*
=13-	=13-	=13-	=13-	=13-	=13-	=13-	=13-
1BB-	.	1B-	es	.	.	1d	.
1.F	Vir-	1A	Vir-	2rF	.	1.c	vir-
.	.	.	.	1A/	Vir-	.	.
=14-	=14-	=14-	=14-	=14-	=14-	=14-	=14-
.	.	1c	-go	.	.	.	.
2E/	.	.	.	2G/	.	2e\	-go
*	*	*lig	*	*	*	*	*
2D/	-go	1d	Ma-	2A/	-go	2f\	.
2G\	.	.	.	2B-/	.	2g\	.
=15-	=15-	=15-	=15-	=15-	=15-	=15-	=15-
4D/	.	1f	.	2.A/	Ma-	1a	.
4E/	.	.	.	.	.	.	.
4F\	.	.	.	.	.	.	.
4G\	.	.	.	4B-/	-ri-	.	.
*	*	*Xlig	*	*	*	*	*
1A	Ma-	1e	-ri-	1c	-a	1.a	.
=16-	=16-	=16-	=16-	=16-	=16-	=16-	=16-
*	*	*lig	*	*	*	*	*
1F	.	1f	.	1A	.	.	.
.	.	.	.	.	.	2.d\	Ma-
2E/	-ri-	1g	.	2G/	.	.	.
.	.	.	.	.	.	4c/	.
*	*	*	*	*custos:A	*	*	*
2C/	-a	.	.	2c/	.	1c\	-ri-
!	!	!	!	!LO:LB:g=original	!	!	!
*	*	*Xlig	*	*	*	*	*
=17-	=17-	=17-	=17-	=17-	=17-	=17-	=17-
*	*	*lig	*	*	*	*	*
1D	.	1f	.	2A/	.	.	.
*	*	*	*	*	*	*custos:c	*
.	.	.	.	2F/	.	2B-/	.
!	!	!	!	!	!	!LO:PB:g=original	!
1C	.	1e	.	2.G/	.	2c/	-a
.	.	.	.	.	.	1g\	.
.	.	.	.	4A/	.	.	.
*	*	*Xlig	*	*	*	*	*
=18-	=18-	=18-	=18-	=18-	=18-	=18-	=18-
*	*	*lig	*	*	*	*	*
1.G	.	1d	.	1.B-	.	.	.
.	.	.	.	.	.	4f\	.
.	.	.	.	.	.	4e\	.
.	.	1c	.	.	.	2d\	.
4F/	.	.	.	4A/	.	2e\	.
*custos:D	*	*	*	*	*	*	*
4E/	.	.	.	4G/	.	.	.
!LO:LB:g=original	!	!	!	!	!	!	!
*	*	*Xlig	*	*	*	*	*
=19-	=19-	=19-	=19-	=19-	=19-	=19-	=19-
*	*	*lig	*	*	*	*	*
1D	.	1d	.	2A/	.	1f	.
.	.	.	.	1d	.	.	.
*lig	*	*	*	*	*	*	*
1G	.	1B-	.	.	.	2d\	.
.	.	.	.	2d\	.	1g\	.
*	*	*Xlig	*	*	*	*	*
=20-	=20-	=20-	=20-	=20-	=20-	=20-	=20-
*	*	*lig	*	*	*	*	*
1A	.	1c	.	2c\	.	.	.
.	.	.	.	2A/	.	2f\	.
*Xlig	*	*	*	*	*	*	*
1G	.	1d	.	2B-/	.	1g	.
.	.	.	.	2G/	.	.	.
*	*	*Xlig	*	*	*	*	*
=21-	=21-	=21-	=21-	=21-	=21-	=21-	=21-
*	*	*custos:G	*	*	*	*	*
1C	.	1c	-a	1G	.	1e	.
!	!	!LO:PB:g=original	!	!	!	!	!
1C	.	1G	quae	1c	.	1e	quae
=22-	=22-	=22-	=22-	=22-	=22-	=22-	=22-
*	*	*lig	*	*	*	*	*
2.BB-/	.	1B-	.	1F	.	2.d\	.
4C/	quae	.	.	.	.	4e\	.
4D/	.	1A	.	2.f\	quae	4f\	.
4E/	.	.	.	.	.	4g\	ſi-
2F\	.	.	.	.	.	1f\	-ne
.	.	.	.	4e\	.	.	.
*	*	*Xlig	*	*	*	*	*
=23-	=23-	=23-	=23-	=23-	=23-	=23-	=23-
*	*	*lig	*	*	*	*	*
1G	ſi-	1B-	ſi-	2d\	.	.	.
.	.	.	.	2G/	.	2e\	.
2F\	-ne	1c	.	2A/	.	1f	ta-
4E/	.	.	.	4G/	.	.	.
4D/	.	.	.	4F/	.	.	.
*	*	*Xlig	*	*	*	*	*
=24-	=24-	=24-	=24-	=24-	=24-	=24-	=24-
*	*	*lig	*	*	*	*	*
2C/	.	1c	-ne	2G/	.	2e\	.
2.F\	.	.	.	2.A/	ſi-	2f\	-ctu
.	.	1A	.	.	.	2c/	.
4E/	.	.	.	4G/	-ne	.	.
4D/	.	.	.	4F/	.	1d\	.
*	*	*	*	*custos:D	*	*	*
4C/	.	.	.	4E/	.	.	.
!	!	!	!	!LO:PB:g=original	!	!	!
*	*	*Xlig	*	*	*	*	*
=25-	=25-	=25-	=25-	=25-	=25-	=25-	=25-
*	*	*lig	*	*	*	*	*
1BB-	tac-	1B-	.	1D	.	.	.
.	.	.	.	.	.	2d\	.
1C	-tu	1G	.	2E/	.	1c	.
.	.	.	.	2C/	.	.	.
*	*	*Xlig	*	*	*	*	*
=26-	=26-	=26-	=26-	=26-	=26-	=26-	=26-
*	*	*lig	*	*	*	*lig	*
1D	.	1F	tac-	2F/	ta-	1A	.
.	.	.	.	2D/	-ctu	.	.
*	*	*	*	*	*	*custos:B	*
1d	.	1G	.	2rD	.	1B-	.
.	.	.	.	2.G/	.	.	.
!	!	!	!	!	!	!LO:LB:g=original	!
*	*	*Xlig	*	*	*	*Xlig	*
=27-	=27-	=27-	=27-	=27-	=27-	=27-	=27-
1d	pu-	1G	-tu	.	.	2B-/	.
.	.	.	.	4A/	pu-	.	.
.	.	.	.	4B-/	.	1d	pu-
.	.	.	.	4c/	.	.	.
1G	-do-	1B-	pu-	2d\	-do-	.	.
.	.	.	.	4c\	-riſ	2e\	.
.	.	.	.	4B-\	.	.	.
=28-	=28-	=28-	=28-	=28-	=28-	=28-	=28-
*	*	*lig	*	*	*	*	*
2F/	-ris	1c	-do-	2A/	.	2f\	.
*custos:G	*	*	*	*	*	*	*
2A\	.	.	.	2c\	.	4e\	-do-
.	.	.	.	.	.	4f\	.
!LO:LB:g=original	!	!	!	!	!	!	!
2G\	.	1d	.	2B-/	.	1g	-ris
4F/	.	.	.	4A/	.	.	.
4E/	.	.	.	4G/	.	.	.
*	*	*Xlig	*	*	*	*	*
=29-	=29-	=29-	=29-	=29-	=29-	=29-	=29-
1D	.	1d	-ris	2A/	.	1f	.
.	.	.	.	2B-/	.	.	.
*lig	*	*lig	*	*	*	*	*
1C	.	1e	.	2c\	.	2rf	.
.	.	.	.	4G/	.	1.g\	.
.	.	.	.	4A/	.	.	.
=30-	=30-	=30-	=30-	=30-	=30-	=30-	=30-
1G	.	1d	.	2B-/	.	.	.
.	.	.	.	2G/	.	.	.
*Xlig	*	*Xlig	*	*	*	*	*
*	*	*lig	*	*	*	*	*
2C/	.	1c	.	2G/	.	2e\	.
2.F\	.	.	.	2.A/	.	1f\	.
=31-	=31-	=31-	=31-	=31-	=31-	=31-	=31-
.	.	1A	.	.	.	.	.
4G\	.	.	.	4B-/	.	.	.
2A\	.	.	.	2c\	.	4e\	.
.	.	.	.	.	.	4f\	.
*	*	*Xlig	*	*	*	*	*
*	*	*lig	*	*	*	*	*
1G	.	1B-	.	2B-/	.	2g\	.
*	*	*	*	*custos:G	*	*	*
.	.	.	.	2G/	.	2d\	.
!	!	!	!	!LO:LB:g=original	!	!	!
=32-	=32-	=32-	=32-	=32-	=32-	=32-	=32-
1C	.	1c	.	0G	in-	1e	.
*	*	*Xlig	*	*	*	*	*
*	*	*custos:d	*	*	*	*	*
1C	in-	1c	in-	.	.	1e	in-
!	!	!LO:LB:g=original	!	!	!	!	!
=33-	=33-	=33-	=33-	=33-	=33-	=33-	=33-
*	*	*lig	*	*	*	*	*
1.G	-uen-	1d	-uen-	1.B-	-uen-	0g	-uen-
.	.	1B-	.	.	.	.	.
4F/	.	.	.	4A/	.	.	.
4E/	.	.	.	4G/	.	.	.
*	*	*Xlig	*	*	*	*	*
=34-	=34-	=34-	=34-	=34-	=34-	=34-	=34-
*	*	*lig	*	*	*	*	*
1D	-ta	1d	.	1A	-ta	1f	-ta
2E/	.	1c	.	2G/	.	2e\	.
2.F/	.	.	.	2.A/	.	1c\	.
*	*	*Xlig	*	*	*	*	*
=35-	=35-	=35-	=35-	=35-	=35-	=35-	=35-
.	.	1A	.	.	.	.	.
4E/	.	.	.	4G/	.	.	.
4D/	.	.	.	4F/	.	1.d	.
4C/	.	.	.	4E/	.	.	.
*	*	*lig	*	*	*	*	*
1BB-	.	1B-	.	1D	.	.	.
=36-	=36-	=36-	=36-	=36-	=36-	=36-	=36-
1C	.	1G	.	2E/	.	1c	.
.	.	.	.	2C/	.	.	.
*	*	*Xlig	*	*	*	*	*
*	*	*lig	*	*	*	*lig	*
1D	es	1F	-ta	2F/	es	1A	es
.	.	.	.	2D/	.	.	.
=37-	=37-	=37-	=37-	=37-	=37-	=37-	=37-
1d	.	1G	.	2rF	.	1B-	.
.	.	.	.	2.G/	.	.	.
*	*	*Xlig	*	*	*	*Xlig	*
*custos:B	*	*	*	*	*	*	*
1d	ma-	1G	es	.	.	2B-/	.
.	.	.	.	4A/	.	.	.
*	*	*	*	*	*	*custos:e	*
.	.	.	.	4B-/	ma-	1d\	ma-
.	.	.	.	4c/	.	.	.
!LO:LB:g=original	!	!	!	!	!	!	!
=38-	=38-	=38-	=38-	=38-	=38-	=38-	=38-
*	*	*lig	*	*	*	*	*
1B-	-ter	1G	ma-	2d\	-ter	.	.
!	!	!	!	!	!	!LO:LB:g=original	!
.	.	.	.	2G/	.	2e\	.
1c	.	1F	.	2A/	.	1.f	-ter
.	.	.	.	2c/	.	.	.
*	*	*Xlig	*	*	*	*	*
=39-	=39-	=39-	=39-	=39-	=39-	=39-	=39-
*	*	*lig	*	*	*	*	*
2B-\	.	1B-	.	1d	.	.	.
2G\	.	.	.	.	.	1g	.
1A	.	1c	.	2c/	.	.	.
.	.	.	.	2A/	.	2f\	.
*	*	*Xlig	*	*	*	*	*
=40-	=40-	=40-	=40-	=40-	=40-	=40-	=40-
2G\	.	1d	.	2B-/	.	1g	.
4F/	.	.	.	4A/	.	.	.
*	*	*	*	*custos:A	*	*	*
4E/	.	.	.	4G/	.	.	.
*	*	*lig	*	*	*	*	*
!	!	!	!	!LO:LB:g=original	!	!	!
2D/	.	1d	-ter	2A/	.	2f\	.
2G\	.	.	.	2B-/	.	1.g\	.
=41-	=41-	=41-	=41-	=41-	=41-	=41-	=41-
1C	.	1e	.	2c/	.	.	.
.	.	.	.	4G/	.	.	.
.	.	.	.	4A/	.	.	.
*	*	*Xlig	*	*	*	*	*
1G	.	1d	.	2B-/	.	2.g\	.
.	.	.	.	1G/	.	.	.
.	.	.	.	.	.	4f\	.
=42-	=42-	=42-	=42-	=42-	=42-	=42-	=42-
*	*	*lig	*	*	*	*	*
2C/	Sal-	1c	.	.	.	2e\	.
2.F/	.	.	.	2.A/	.	1c	Sal-
.	.	1A	.	.	.	.	.
4E/	-ua-	.	.	4G/	.	.	.
4D/	.	.	.	4F/	.	1f\	.
4C/	-to-	.	.	4E/	.	.	.
*	*	*Xlig	*	*	*	*	*
=43-	=43-	=43-	=43-	=43-	=43-	=43-	=43-
*	*	*lig	*	*	*	*	*
1D	-riſ	1B-	.	1F	.	.	.
.	.	.	.	.	.	4e\	-ua-
.	.	.	.	.	.	4d\	.
1C	.	1c	.	1G	.	1e	-to-
*	*	*Xlig	*	*	*	*	*
=44-	=44-	=44-	=44-	=44-	=44-	=44-	=44-
1C	.	1c	sal-	1G	.	1e	-riſ
*	*	*custos:B	*	*	*	*	*
1G	.	1G	-ua:-	2.B-/	.	1d	.
.	.	.	.	4A/	.	.	.
!	!	!LO:LB:g=original	!	!	!	!	!
=45-	=45-	=45-	=45-	=45-	=45-	=45-	=45-
*lig	*	*	*	*	*	*	*
1G	.	1B-	.	2G/	.	2.d\	.
.	.	.	.	2B-/	.	.	.
.	.	.	.	.	.	4e\	.
1F	.	1A	-to-	2c/	.	1f	.
.	.	.	.	1d\	Sal-	.	.
*Xlig	*	*	*	*	*	*	*
=46-	=46-	=46-	=46-	=46-	=46-	=46-	=46-
*lig	*	*lig	*	*	*	*	*
1G	.	1B-	.	.	.	1d	.
.	.	.	.	2B-/	.	.	.
1C	.	1G	.	1c	-ua-	1e	.
*Xlig	*	*Xlig	*	*	*	*	*
=47-	=47-	=47-	=47-	=47-	=47-	=47-	=47-
1D	.	1F	.	1A	-to-	2rf	.
.	.	.	.	.	.	2f\	.
*custos:G	*	*	*	*	*	*	*
0d	Sal-	0G	.	0B-	-ris	2d\	.
.	.	.	.	.	.	1g\	.
=48-	=48-	=48-	=48-	=48-	=48-	=48-	=48-
.	.	.	.	.	.	.	.
.	.	.	.	.	.	4f\	.
*	*	*	*	*	*	*custos:d	*
.	.	.	.	.	.	4e\	.
*	*	*lig	*	*	*	*	*
!LO:PB:g=original	!	!	!	!	!	!LO:LB:g=original	!
1G	-ua-	1d	.	1B-	.	2d\	.
.	.	.	.	.	.	1.g\	.
=49-	=49-	=49-	=49-	=49-	=49-	=49-	=49-
1c	.	1e	.	2r	.	.	.
*	*	*	*	*custos:d	*	*	*
.	.	.	.	2c\	.	.	.
!	!	!	!	!LO:LB:g=original	!	!	!
*	*	*Xlig	*	*	*	*	*
1G	-to-	1d	.	2d\	.	2.g\	.
.	.	.	.	2G/	.	.	.
.	.	.	.	.	.	4f\	.
=50-	=50-	=50-	=50-	=50-	=50-	=50-	=50-
*	*	*lig	*	*	*	*	*
2C/	-ris	1c	.	2G/	.	4e\	.
.	.	.	.	.	.	4d\	.
1F	.	.	.	1A	.	1c	.
.	.	1A	.	.	.	.	.
4E/	.	.	.	4G/	.	2d\	.
4D/	.	.	.	4F/	.	.	.
*	*	*Xlig	*	*	*	*	*
=51-	=51-	=51-	=51-	=51-	=51-	=51-	=51-
*	*	*lig	*	*	*	*	*
1C	.	1c	.	2.G/	.	1e	.
.	.	.	.	4A/	.	.	.
1G	.	1d	.	2B-/	.	2rf	.
.	.	.	.	1G/	.	2d\	Sal-
*	*	*Xlig	*	*	*	*	*
=52-	=52-	=52-	=52-	=52-	=52-	=52-	=52-
*	*	*lig	*	*	*	*	*
2C/	.	1c	.	.	.	2e\	.
1F	.	.	.	1A	.	2f\	-ua-
.	.	1A	.	.	.	2c/	-to-
2D/	.	.	.	2F/	.	1d\	.
*	*	*Xlig	*	*	*	*	*
=53-	=53-	=53-	=53-	=53-	=53-	=53-	=53-
1G	.	1B-	.	2B-/	.	.	.
.	.	.	.	2G/	.	2e\	-riſ
*	*	*lig	*	*	*	*	*
1F	.	1c	.	1A	.	1f	.
=54-	=54-	=54-	=54-	=54-	=54-	=54-	=54-
0G	.	1B-	.	1.B-	.	1.d	.
*	*	*Xlig	*	*	*	*	*
.	.	1B-	-ris.	.	.	.	.
.	.	.	.	2G/	.	2e\	.
=55-	=55-	=55-	=55-	=55-	=55-	=55-	=55-
*	*	*custos:d	*	*	*	*	*
!LO:N:vis=00	!	!LO:N:vis=00	!	!LO:N:vis=00	!	!LO:N:vis=00	!
0D	.	0A	.	0d	.	0f	.
!	!	!LO:LB:g=original	!	!	!	!	!
=56-	=56-	=56-	=56-	=56-	=56-	=56-	=56-
*lig	*	*	*	*lig	*	*lig	*
1D	Vir-	0d	Vir-	1A	Vir-	1f	Vir-
1G	.	.	.	1B-	.	1g	.
*Xlig	*	*	*	*Xlig	*	*Xlig	*
=57-	=57-	=57-	=57-	=57-	=57-	=57-	=57-
2F/	.	1f	-go	2c\	-go	1a	-go
2.D/	-go	.	.	2d\	.	.	.
*	*	*lig	*	*	*	*	*
.	.	1d	.	2.A/	.	1.a	.
4E/	.	.	.	.	.	.	.
4F/	.	.	.	.	.	.	.
*	*	*	*	*custos:c	*	*	*
4G/	.	.	.	4B-/	.	.	.
!	!	!	!	!LO:PB:g=original	!	!	!
=58-	=58-	=58-	=58-	=58-	=58-	=58-	=58-
*custos:D	*	*	*	*	*	*	*
1A	.	1c	.	1c	.	.	.
*	*	*	*	*	*	*custos:f	*
.	.	.	.	.	.	2e\	.
!LO:LB:g=original	!	!	!	!	!	!LO:PB:g=original	!
*	*	*Xlig	*	*	*	*	*
*	*	*lig	*	*	*	*	*
0D	.	1d	.	1A	.	0f	.
=59-	=59-	=59-	=59-	=59-	=59-	=59-	=59-
.	.	1A	.	0d	.	.	.
*	*	*Xlig	*	*	*	*	*
1G	.	1B-	.	.	.	0g	.
=60-	=60-	=60-	=60-	=60-	=60-	=60-	=60-
*	*	*lig	*	*	*	*	*
1C	.	1c	.	1c	.	.	.
1F	.	1A	.	2.c\	.	1f	.
.	.	.	.	4B-/	.	.	.
*	*	*Xlig	*	*	*	*	*
=61-	=61-	=61-	=61-	=61-	=61-	=61-	=61-
*	*	*lig	*	*	*	*	*
1F	.	1c	.	2.A/	.	2.f\	.
.	.	.	.	4G/	.	4g\	.
2D/	.	1f	.	2F/	.	1.a	.
1F\	.	.	.	1A/	.	.	.
*	*	*Xlig	*	*	*	*	*
=62-	=62-	=62-	=62-	=62-	=62-	=62-	=62-
*	*	*lig	*	*	*	*	*
.	.	1d	.	.	.	.	.
2G\	.	.	.	2B-/	.	4g\	.
.	.	.	.	.	.	4f\	.
1A	.	1c	.	2c/	.	1e	.
.	.	.	.	1A/	.	.	.
*	*	*Xlig	*	*	*	*	*
=63-	=63-	=63-	=63-	=63-	=63-	=63-	=63-
*	*	*lig	*	*	*	*	*
1D	.	1d	.	.	.	1f	.
.	.	.	.	1.d	.	.	.
1G	.	1B-	.	.	.	2d\	.
.	.	.	.	.	.	1g\	.
*	*	*Xlig	*	*	*	*	*
=64-	=64-	=64-	=64-	=64-	=64-	=64-	=64-
*	*	*lig	*	*	*	*	*
1D	.	1A	.	00d	.	.	.
.	.	.	.	.	.	2f\	.
!LO:TX:a:t=iedna	!	!	!	!	!	!	!
1r	.	1G	.	.	.	2g\	.
.	.	.	.	.	.	4f\	.
.	.	.	.	.	.	4e\	.
*	*	*Xlig	*	*	*	*	*
=65-	=65-	=65-	=65-	=65-	=65-	=65-	=65-
*lig	*	*	*	*	*	*	*
1G	De-	1B-	.	.	.	2d\	.
.	.	.	.	.	.	1g	.
*	*	*lig	*	*	*	*	*
1D	.	1A	.	.	.	.	.
.	.	.	.	.	.	2f\	.
=66-	=66-	=66-	=66-	=66-	=66-	=66-	=66-
!LO:TX:a:t=2	!	!	!	!	!	!	!
0G	-i	1G	.	1.d	.	1g	.
*	*	*Xlig	*	*	*	*	*
*	*	*lig	*	*	*	*	*
.	.	1B-	.	.	.	2r	.
.	.	.	.	4c/	.	2G/	.
.	.	.	.	4B-/	.	.	.
*Xlig	*	*	*	*	*	*	*
=67-	=67-	=67-	=67-	=67-	=67-	=67-	=67-
*	*	*custos:d	*	*	*	*	*
2F/	.	1c	.	2A/	.	2A/	.
2E/	.	.	.	1G	.	1c	.
!	!	!LO:PB:g=original	!	!	!	!	!
*	*	*Xlig	*	*	*	*	*
*	*	*lig	*	*	*	*	*
1D	.	1d	.	.	.	.	.
.	.	.	.	2F/	.	2B-/	.
=68-	=68-	=68-	=68-	=68-	=68-	=68-	=68-
1C	.	1e	.	2G/	.	2.c/	.
.	.	.	.	2g\	De-	.	.
.	.	.	.	.	.	4B-/	.
*lig	*	*Xlig	*	*	*	*	*
*	*	*lig	*	*	*	*	*
1F	.	1c	De-	2.f\	-i	4A/	.
*	*	*	*	*	*	*custos:f	*
.	.	.	.	.	.	4F/	.
!	!	!	!	!	!	!LO:LB:g=original	!
.	.	.	.	.	.	1f\	.
*	*	*	*	*custos:d	*	*	*
.	.	.	.	4e\	.	.	.
!	!	!	!	!LO:LB:g=original	!	!	!
=69-	=69-	=69-	=69-	=69-	=69-	=69-	=69-
1G	.	1B-	.	2d\	.	.	.
.	.	.	.	2G/	.	2e\	De-
*Xlig	*	*Xlig	*	*	*	*	*
*	*	*lig	*	*	*	*	*
1F	.	1c	.	1A	.	0f	-i
=70-	=70-	=70-	=70-	=70-	=70-	=70-	=70-
4BB-/	.	1d	.	2.F/	.	.	.
4C/	.	.	.	.	.	.	.
4D/	.	.	.	.	.	.	.
4E/	.	.	.	4G/	.	.	.
*lig	*	*Xlig	*	*	*	*	*
*	*	*lig	*	*	*	*	*
1F	.	1c	.	1A	.	2rf	.
.	.	.	.	.	.	1f\	.
=71-	=71-	=71-	=71-	=71-	=71-	=71-	=71-
*custos:F	*	*	*	*	*	*	*
1G	.	1B-	.	4G/	.	.	.
.	.	.	.	4A/	.	.	.
.	.	.	.	4B-/	.	2e\	.
.	.	.	.	4G/	.	.	.
*Xlig	*	*Xlig	*	*	*	*	*
*	*	*lig	*	*	*	*	*
!LO:LB:g=original	!	!	!	!	!	!	!
2F/	.	1c	.	2A/	.	1f	.
2A\	.	.	.	2F/	.	.	.
=72-	=72-	=72-	=72-	=72-	=72-	=72-	=72-
1G	.	1d	.	1B-	.	1g	.
*	*	*Xlig	*	*	*	*	*
1C	.	1c	-i	1G	.	1e	.
=73-	=73-	=73-	=73-	=73-	=73-	=73-	=73-
1.G	.	1B-	ge-	2rF	.	1.d	ge-
.	.	.	.	1B-	.	.	.
.	.	1B-	-ni-	.	.	.	.
4F/	.	.	.	4A/	.	2e\	-ni-
4E/	.	.	.	4G/	.	.	.
=74-	=74-	=74-	=74-	=74-	=74-	=74-	=74-
*	*	*lig	*	*	*	*	*
2.D/	ge-	1d	.	2.A/	ge-	1.f	-trix
4E/	-ni-	.	.	4G/	-ni-	.	.
4F/	.	1c	.	4A/	-trix	.	.
4G\	-trix	.	.	4B-/	.	.	.
2A\	.	.	.	2c/	.	4e\	.
.	.	.	.	.	.	4f\	.
*	*	*Xlig	*	*	*	*	*
=75-	=75-	=75-	=75-	=75-	=75-	=75-	=75-
2G\	.	1d	.	2B-/	.	1g	.
4F/	.	.	.	4A/	.	.	.
4E/	.	.	.	4G/	.	.	.
*	*	*lig	*	*	*	*	*
2D/	.	1d	-trix	2A/	.	2f\	.
2G\	.	.	.	2B-/	.	1g\	.
=76-	=76-	=76-	=76-	=76-	=76-	=76-	=76-
1A	.	1c	.	1c	.	.	.
.	.	.	.	.	.	2f\	.
*	*	*Xlig	*	*	*	*	*
*	*	*lig	*	*lig	*	*	*
0G	.	1d	.	1B-	.	1g	.
=77-	=77-	=77-	=77-	=77-	=77-	=77-	=77-
*	*	*	*	*custos:d	*	*	*
.	.	1B-	.	1d	.	2rf	.
.	.	.	.	.	.	1g	.
!	!	!	!	!LO:LB:g=original	!	!	!
*	*	*Xlig	*	*Xlig	*	*	*
*	*	*custos:B-	*	*	*	*	*
1G	quem	1B-	quem	2.d\	.	.	.
.	.	.	.	.	.	4f\	quem
.	.	.	.	4c/	.	4e\	.
!	!	!LO:LB:g=original	!	!	!	!	!
=78-	=78-	=78-	=78-	=78-	=78-	=78-	=78-
*lig	*	*	*	*	*	*	*
1G	.	1B-	to-	2B-/	.	2d\	.
.	.	.	.	2G/	.	2e\	.
1F	.	1c	.	1A	.	2.f\	.
.	.	.	.	.	.	4e\	.
*Xlig	*	*	*	*	*	*	*
=79-	=79-	=79-	=79-	=79-	=79-	=79-	=79-
2BB-/	.	0B-	.	2F/	.	2d\	.
*	*	*	*	*	*	*custos:e	*
1E	to-	.	.	1G	quem	2B-/	.
!	!	!	!	!	!	!LO:LB:g=original	!
.	.	.	.	.	.	1e-X	.
4D/	.	.	.	4F/	.	.	.
4C/	.	.	.	4E/	.	.	.
=80-	=80-	=80-	=80-	=80-	=80-	=80-	=80-
*	*	*lig	*	*	*	*	*
1BB-	.	1d	.	2F/	.	2d\	.
.	.	.	.	2B-/	.	2f\	.
*custos:F	*	*	*	*	*	*	*
2C/	.	1c	.	2G/	.	2eny\	.
!LO:LB:g=original	!	!	!	!	!	!	!
2.F/	.	.	.	2.A/	to-	1c\	.
*	*	*Xlig	*	*	*	*	*
=81-	=81-	=81-	=81-	=81-	=81-	=81-	=81-
.	.	1A	.	.	.	.	.
4E/	.	.	.	4G/	.	.	.
4D/	.	.	.	4F/	-tus	1.d	.
4C/	.	.	.	4E/	.	.	.
*lig	*	*lig	*	*	*	*	*
1BB-	.	1B-	.	1D	.	.	.
=82-	=82-	=82-	=82-	=82-	=82-	=82-	=82-
1C	.	1G	.	1E	.	1c	to-
*Xlig	*	*Xlig	*	*	*	*	*
1C	-tus	1G	-tus	1E	.	1c	-tus
=83-	=83-	=83-	=83-	=83-	=83-	=83-	=83-
1BB-	non	1B-	no(n)	2F/	non	1.d	non
.	.	.	.	2D/	.	.	.
1D	.	1F	ca-	2A/	.	.	.
.	.	.	.	2D/	.	4A/	.
.	.	.	.	.	.	4B-/	ca-
=84-	=84-	=84-	=84-	=84-	=84-	=84-	=84-
1C	ca-	1G	-pit	1E	ca-	1c	.
*lig	*	*	*	*	*	*	*
1C	-pit	1G	or-	1E	-pit	1c	-pit
=85-	=85-	=85-	=85-	=85-	=85-	=85-	=85-
*	*	*lig	*	*	*	*	*
*	*	*	*	*custos:E	*	*	*
1BB-	.	1B-	.	1F	.	1d	.
*Xlig	*	*	*	*	*	*	*
!	!	!	!	!LO:LB:g=original	!	!	!
4C/	.	1G	.	2E/	.	1e	.
4D/	.	.	.	.	.	.	.
4E/	.	.	.	2.G/	or-	.	.
4F/	.	.	.	.	.	.	.
*	*	*Xlig	*	*	*	*	*
=86-	=86-	=86-	=86-	=86-	=86-	=86-	=86-
1G	.	1B-	.	.	.	2d\	.
.	.	.	.	4A/	.	.	.
.	.	.	.	4B-/	.	1g	.
.	.	.	.	4c/	.	.	.
*	*	*lig	*	*	*	*	*
1D	.	1A	.	1.d	.	.	.
.	.	.	.	.	.	2f\	or-
=87-	=87-	=87-	=87-	=87-	=87-	=87-	=87-
2r	.	1G	.	.	.	2.g\	-biſ
1G	or-	.	.	2B-/	.	.	.
.	.	.	.	.	.	4f\	.
*	*	*Xlig	*	*	*	*	*
.	.	1A	.	1c	.	2e\	.
2F/	.	.	.	.	.	2f\	.
=88-	=88-	=88-	=88-	=88-	=88-	=88-	=88-
*	*	*lig	*	*	*	*	*
1G	-bis	1B-	.	2B-/	.	1d	.
.	.	.	.	1G	-bis	.	.
*	*	*custos:c	*	*	*	*custos:f	*
2C/	.	1c	.	.	.	2e\	.
!	!	!	!	!	!	!LO:LB:g=original	!
2.F/	.	.	.	1.A/	.	1f\	.
!	!	!LO:LB:g=original	!	!	!	!	!
*	*	*Xlig	*	*	*	*	*
=89-	=89-	=89-	=89-	=89-	=89-	=89-	=89-
.	.	1c	-bis	.	.	.	.
4G\	.	.	.	.	.	.	.
2A\	.	.	.	.	.	4e\	.
.	.	.	.	.	.	4f\	.
*custos:C	*	*	*	*	*	*	*
*	*	*lig	*	*	*	*	*
1G	.	1d	.	1B-	.	2.g\	.
.	.	.	.	.	.	4f\	.
!LO:PB:g=original	!	!	!	!	!	!	!
=90-	=90-	=90-	=90-	=90-	=90-	=90-	=90-
2C/	in	1c	.	2G/	.	2e\	.
2F/	.	.	.	2A/	.	2f\	.
*	*	*Xlig	*	*	*	*	*
1G	tu-	1B-	in	1B-	.	1.d	in
=91-	=91-	=91-	=91-	=91-	=91-	=91-	=91-
*lig	*	*	*	*	*	*	*
1G	-a	1B-	tu-	1G	.	.	.
.	.	.	.	.	.	2e\	tu-
1F	.	1c	.	1A	.	1f	-a
*Xlig	*	*	*	*	*	*	*
=92-	=92-	=92-	=92-	=92-	=92-	=92-	=92-
*	*	*lig	*	*	*	*	*
4BB-/	.	1d	.	2.F/	.	1.f	.
4C/	.	.	.	.	.	.	.
4D/	.	.	.	.	.	.	.
4E/	.	.	.	4G/	.	.	.
2F/	.	1c	.	1A	.	.	.
2A\	.	.	.	.	.	4e\	ſe
.	.	.	.	.	.	4f\	.
*	*	*Xlig	*	*	*	*	*
=93-	=93-	=93-	=93-	=93-	=93-	=93-	=93-
*	*	*lig	*	*	*	*	*
1G	.	1d	.	1B-	.	1g	clau-
1C	ſe	1e	.	1c	in	1g	-ſit
*	*	*Xlig	*	*	*	*	*
=94-	=94-	=94-	=94-	=94-	=94-	=94-	=94-
1G	.	1d	-a	1B-	tu-	2ra	.
.	.	.	.	.	.	1g	.
1D	.	1d	ſe	1A	-a	.	.
.	.	.	.	.	.	2f\	.
=95-	=95-	=95-	=95-	=95-	=95-	=95-	=95-
*lig	*	*lig	*	*	*	*	*
1G	.	1d	clau-	1B-	.	4g\	.
.	.	.	.	.	.	4d\	.
.	.	.	.	.	.	1g	.
1A	.	1c	.	2r	.	.	.
*	*	*	*	*custos:B	*	*	*
.	.	.	.	2F/	ſe	2f\	.
!	!	!	!	!LO:PB:g=original	!	!	!
*	*	*Xlig	*	*	*	*	*
=96-	=96-	=96-	=96-	=96-	=96-	=96-	=96-
!LO:TX:a:t=2	!	!	!	!	!	!	!
*	*	*lig	*	*	*	*	*
0G	­	1d	.	2.B-\	ſe	2g\	.
.	.	.	.	.	.	4f\	.
.	.	.	.	4c\	.	4e\	.
.	.	1B-	.	1d	.	2d\	.
.	.	.	.	.	.	1g\	Vi-
*Xlig	*	*Xlig	*	*	*	*	*
=97-	=97-	=97-	=97-	=97-	=97-	=97-	=97-
*lig	*	*lig	*	*	*	*	*
1D	clau-	1A	-ſit	1d	.	.	.
*	*	*	*	*	*	*custos:g	*
.	.	.	.	.	.	2f\	-ſce:-
!	!	!	!	!	!	!LO:PB:g=original	!
1G	.	1G	.	2.d\	clau-	2g\	.
.	.	.	.	.	.	4f\	.
.	.	.	.	4c\	.	4e\	.
*Xlig	*	*Xlig	*	*	*	*	*
=98-	=98-	=98-	=98-	=98-	=98-	=98-	=98-
1G	-ſit	1B-	vi-	2B-/	.	2d\	-ra
.	.	.	.	2G/	-ſit	2e\	.
*	*	*lig	*	*	*	*	*
0F	.	1c	.	2A/	.	2f\	.
.	.	.	.	1.c\	.	4e\	.
.	.	.	.	.	.	4d\	.
=99-	=99-	=99-	=99-	=99-	=99-	=99-	=99-
.	.	1A	.	.	.	2c\	.
.	.	.	.	.	.	1f	.
*	*	*Xlig	*	*	*	*	*
*	*	*custos:d	*	*	*	*	*
2BB-/	.	1B-	.	1.d	.	.	.
1B-\	.	.	.	.	.	1f\	.
!	!	!LO:LB:g=original	!	!	!	!	!
=100-	=100-	=100-	=100-	=100-	=100-	=100-	=100-
*	*	*lig	*	*	*	*	*
.	.	1d	.	.	.	.	.
2G\	.	.	.	2B-\	.	2g\	.
2A\	.	1c	.	2c\	.	2e\	.
1F\	.	.	.	4A/	.	2f\	.
.	.	.	.	4B-/	.	.	.
*	*	*Xlig	*	*	*	*	*
=101-	=101-	=101-	=101-	=101-	=101-	=101-	=101-
*	*	*lig	*	*	*	*	*
.	.	1A	.	2c\	.	2c\	.
*custos:G	*	*	*	*	*	*	*
2D/	Vi-	.	.	2A/	.	1.d	.
!LO:LB:g=original	!	!	!	!	!	!	!
*lig	*	*	*	*	*	*	*
1G	-ſce-	1B-	.	2G/	.	.	.
.	.	.	.	2d\	.	.	.
*	*	*Xlig	*	*	*	*	*
=102-	=102-	=102-	=102-	=102-	=102-	=102-	=102-
1C	.	1G	.	1c	.	1e	.
*Xlig	*	*	*	*	*	*	*
*lig	*	*lig	*	*	*	*	*
1D	-ra	1F	-ſce-	1A	.	1f	.
=103-	=103-	=103-	=103-	=103-	=103-	=103-	=103-
1d	.	1G	.	2.B-\	vi-	2d\	.
.	.	.	.	.	.	2.g\	.
.	.	.	.	4c\	-ſce-	.	.
*Xlig	*	*Xlig	*	*	*	*	*
1B-	.	1G	-ra	1d	-ra	.	.
.	.	.	.	.	.	4f\	.
.	.	.	.	.	.	4d\	.
.	.	.	.	.	.	4e\	.
=104-	=104-	=104-	=104-	=104-	=104-	=104-	=104-
1c	.	1F	fa-	1r	.	1f	.
*	*	*lig	*	*	*	*	*
*	*	*	*	*custos:d	*	*	*
1B-	.	1G	.	2rd	.	1d	.
!	!	!	!	!LO:LB:g=original	!	!	!
.	.	.	.	2.d\	.	.	.
=105-	=105-	=105-	=105-	=105-	=105-	=105-	=105-
1G	fa-	1B-	.	.	.	1.d	fa-
.	.	.	.	4c\	.	.	.
.	.	.	.	1B-	fac-	.	.
*lig	*	*Xlig	*	*	*	*	*
*	*	*lig	*	*	*	*	*
1G	-ctuſ	1B-	-ctus	.	.	.	.
*	*	*	*	*	*	*custos:f	*
.	.	.	.	4A/	.	2e\	-ctuſ
.	.	.	.	4G/	-tuſ	.	.
!	!	!	!	!	!	!LO:LB:g=original	!
=106-	=106-	=106-	=106-	=106-	=106-	=106-	=106-
1F	.	1c	.	1A	.	1f	.
*Xlig	*	*Xlig	*	*	*	*	*
*lig	*	*lig	*	*	*	*	*
1F	.	1c	ho-	1A	.	2rf	.
.	.	.	.	.	.	2f\	.
=107-	=107-	=107-	=107-	=107-	=107-	=107-	=107-
1G	.	1B-	.	1d	.	2d\	.
.	.	.	.	.	.	1g	.
*Xlig	*	*Xlig	*	*	*	*	*
*lig	*	*	*	*	*	*	*
1A	.	1c	.	2c\	.	.	.
.	.	.	.	2A/	.	2f\	.
=108-	=108-	=108-	=108-	=108-	=108-	=108-	=108-
*	*	*lig	*	*	*	*	*
1G	.	1d	.	1B-	ho-	1g	.
*Xlig	*	*	*	*	*	*	*
*lig	*	*	*	*	*	*	*
1C	ho-	1c	.	1G	.	1e	.
*	*	*Xlig	*	*	*	*	*
=109-	=109-	=109-	=109-	=109-	=109-	=109-	=109-
1G	.	1d	.	1B-	-mo	2d\	ho-
.	.	.	.	.	.	1g	.
*Xlig	*	*	*	*	*	*	*
*lig	*	*lig	*	*	*	*	*
1D	-mo	1d	-mo	2A/	.	.	.
.	.	.	.	1.d\	.	2f\	-mo
=110-	=110-	=110-	=110-	=110-	=110-	=110-	=110-
1G	.	1B-	.	.	.	1g	.
*Xlig	*	*Xlig	*	*	*	*	*
*lig	*	*lig	*	*	*	*	*
1G	.	1d	.	1B-	.	2rg	.
.	.	.	.	.	.	1g\	.
=111-	=111-	=111-	=111-	=111-	=111-	=111-	=111-
*	*	*custos:d	*	*	*	*	*
1A	.	1c	.	2c\	.	.	.
.	.	.	.	2A/	.	2f\	.
!	!	!LO:PB:g=original	!	!	!	!	!
*	*	*Xlig	*	*	*	*	*
!LO:TX:a:t=2	!	!	!	!	!	!	!
0G	.	1d	.	2.B-\	.	2g\	.
.	.	.	.	.	.	4f\	.
.	.	.	.	4c\	.	4e\	.
*Xlig	*	*	*	*	*	*	*
=112-	=112-	=112-	=112-	=112-	=112-	=112-	=112-
.	.	1B-	.	1d	.	2d\	.
.	.	.	.	.	.	1g	.
*	*	*lig	*	*	*	*	*
1D	.	1A	.	1d	.	.	.
.	.	.	.	.	.	2f\	.
=113-	=113-	=113-	=113-	=113-	=113-	=113-	=113-
*	*	*	*	*custos:A	*	*	*
2r	.	1G	.	1d	.	2.g\	.
1G	fac-	.	.	.	.	.	.
.	.	.	.	.	.	4f\	.
!	!	!	!	!LO:LB:g=original	!	!	!
*	*	*Xlig	*	*	*	*	*
*	*	*lig	*ij	*	*	*	*
.	.	1c	fa-	1A	.	2e\	.
2F/	.	.	.	.	.	1f\	.
=114-	=114-	=114-	=114-	=114-	=114-	=114-	=114-
*lig	*	*	*	*	*	*	*
1G	-ctuſ	1B-	.	1B-	.	.	.
.	.	.	.	.	.	2e\	.
*	*	*Xlig	*	*	*	*	*
*	*	*lig	*	*	*	*	*
1F	.	1A	.	2c\	.	1.f	fac-
.	.	.	.	1c\	.	.	.
*Xlig	*	*	*	*	*	*	*
=115-	=115-	=115-	=115-	=115-	=115-	=115-	=115-
*lig	*	*	*	*	*	*	*
1D	.	1F	.	.	.	.	.
.	.	.	.	2B-\	.	4e\	-t(us)
.	.	.	.	.	.	4d\	.
*	*	*	*	*	*	*custos:e	*
*	*	*Xlig	*	*	*	*	*
*custos:D	*	*	*	*	*	*	*
!	!	!	!	!	!	!LO:LB:g=original	!
*	*	*lig	*	*	*	*	*
1C	.	1G	.	2.c\	.	1e	.
.	.	.	.	4B-\	.	.	.
!LO:LB:g=original	!	!	!	!	!	!	!
*Xlig	*	*	*	*	*	*	*
=116-	=116-	=116-	=116-	=116-	=116-	=116-	=116-
*lig	*	*	*	*	*	*	*
1D	ho-	1F	.	2A/	.	2d\	.
.	.	.	.	2B-/	.	1f	.
*	*	*Xlig	*	*	*	*	*
*	*	*lig	*	*	*ij	*	*
1C	.	1G	-ctus	2c\	.	.	.
.	.	.	.	2G/	fac-	2e\	.
*Xlig	*	*	*	*	*	*	*
=117-	=117-	=117-	=117-	=117-	=117-	=117-	=117-
1F	-mo	1D	.	2A/	.	1f	.
.	.	.	.	2d\	.	.	.
*	*	*Xlig	*	*	*	*	*
*	*	*lig	*	*	*	*	*
2rF	.	1F	ho-	1c	-tus	2.f\	ho-
*	*	*	*Xij	*	*	*	*
1F\	.	.	.	.	.	.	.
.	.	.	.	.	.	4e\	-mo
=118-	=118-	=118-	=118-	=118-	=118-	=118-	=118-
.	.	1G	.	1B-	ho-	2d\	.
2E/	.	.	.	.	.	2e\	.
*lig	*	*Xlig	*	*	*	*	*
*	*	*lig	*	*	*	*	*
1F	.	1A	.	2A/	.	1c	.
.	.	.	.	2F/	.	.	.
=119-	=119-	=119-	=119-	=119-	=119-	=119-	=119-
1BB-	.	1B-	.	1F	-mo	1d	.
*Xlig	*	*Xlig	*	*	*	*	*
*lig	*	*lig	*	*	*	*	*ij
1C	.	1G	.	2rF	.	1e	fa-
.	.	.	.	1c\	fac-	.	.
=120-	=120-	=120-	=120-	=120-	=120-	=120-	=120-
1D	.	1F	.	.	.	1f	.
.	.	.	.	2B-/	.	.	.
*Xlig	*	*Xlig	*	*	*	*	*
*lig	*	*	*	*	*	*	*
1C	.	1G	.	1c	.	1e	.
=121-	=121-	=121-	=121-	=121-	=121-	=121-	=121-
*	*	*lig	*	*	*	*	*
1G	.	1B-	.	2B-/	.	2d\	.
*	*	*	*	*custos:A	*	*	*
.	.	.	.	2G/	.	2e\	.
!	!	!	!	!LO:LB:g=original	!	!	!
*Xlig	*	*	*	*	*	*	*
1F	.	1c	.	1A	-tus	1f	.
*	*	*Xlig	*	*	*	*	*
=122-	=122-	=122-	=122-	=122-	=122-	=122-	=122-
0G	.	0B-	-mo	2.G/	ho-	0d	-ctus
.	.	.	.	4A/	.	.	.
.	.	.	.	2B-\	.	.	.
.	.	.	.	2G/	-mo	.	.
=123-	=123-	=123-	=123-	=123-	=123-	=123-	=123-
1C	.	1G	.	1c	fac-	1.c	ho-
!LO:N:vis=0	!	!	!	!	!	!	!
1F	.	1ryy	.	1.c	-tus	.	.
.	.	.	.	.	.	2d\	.
=124-	=124-	=124-	=124-	=124-	=124-	=124-	=124-
0C	.	00ryy	.	.	.	0e-X	.
.	.	.	.	2F/	ho-	.	.
.	.	.	.	0c	.	.	.
=125-	=125-	=125-	=125-	=125-	=125-	=125-	=125-
!LO:TX:a:t=g	!	!	!	!	!	!	!
!LO:TX:b:t=g	!	!	!	!	!	!LO:N:vis=00	!
!LO:N:vis=00	!	!	!	!	!	!	!
0GG	.	.	.	.	.	0d	-mo
*	*	*	*	*	*	*	*Xij
!	!	!	!	!LO:N:vis=00	!	!	!
!	!	!	!	!LO:N:acc=#	!	!	!
.	.	.	.	1Bn	-mo	.	.
*	*	*	*	*	*Xij	*	*
=||	=||	=||	=||	=||	=||	=||	=||
*-	*-	*-	*-	*-	*-	*-	*-
!!!system-decoration: [(s1,s2,s3,s4)]
!!!ENC: Mateusz Solarz
!!!END: 2022-02-14
!!!EED: Antoni Szymański
!!!EST: 2022-03-19
